src/assets/icons/Warranty-Icon.svg

<?xml version="1.0"?><svg xmlns="http://www.w3.org/2000/svg"  viewBox="0 0 30 30" width="30px" height="30px">    <path d="M 15 3 C 10.398 3 5.6113281 4.0371094 5.6113281 4.0371094 L 5.6074219 4.0410156 A 2 2 0 0 0 4 6 L 4 12 C 4 22.398 14.021484 26.744141 14.021484 26.744141 A 2 2 0 0 0 15 27 A 2 2 0 0 0 15.974609 26.744141 L 15.978516 26.744141 C 15.979516 26.744141 26 22.398 26 12 L 26 6 A 2 2 0 0 0 24.388672 4.0371094 C 24.388672 4.0371094 19.602 3 15 3 z M 21 9 C 21.25575 9 21.511531 9.0974688 21.707031 9.2929688 C 22.098031 9.6839688 22.098031 10.316031 21.707031 10.707031 L 14.146484 18.267578 C 13.958484 18.455578 13.704453 18.560547 13.439453 18.560547 C 13.174453 18.560547 12.919422 18.455578 12.732422 18.267578 L 9.2792969 14.814453 C 8.8882969 14.423453 8.8882969 13.791391 9.2792969 13.400391 C 9.6702969 13.009391 10.302359 13.009391 10.693359 13.400391 L 13.439453 16.146484 L 20.292969 9.2929688 C 20.488469 9.0974688 20.74425 9 21 9 z"/></svg>

<svg xmlns="http://www.w3.org/2000/svg" xmlns:xlink="http://www.w3.org/1999/xlink" viewBox="0,0,256,256" width="30px" height="30px" fill-rule="nonzero"><g fill="#333333" fill-rule="nonzero" stroke="none" stroke-width="1" stroke-linecap="butt" stroke-linejoin="miter" stroke-miterlimit="10" stroke-dasharray="" stroke-dashoffset="0" font-family="none" font-weight="none" font-size="none" text-anchor="none" style="mix-blend-mode: normal"><g transform="scale(8.53333,8.53333)"><path d="M15,3c-4.602,0 -9.38867,1.03711 -9.38867,1.03711l-0.00391,0.00391c-0.93391,0.18695 -1.60642,1.00655 -1.60742,1.95898v6c0,10.398 10.02148,14.74414 10.02148,14.74414c0.29886,0.16771 0.63581,0.25582 0.97852,0.25586c0.34138,-0.00071 0.6769,-0.08879 0.97461,-0.25586h0.00391c0.001,0 10.02148,-4.34614 10.02148,-14.74414v-6c0.00049,-0.95511 -0.67443,-1.77728 -1.61133,-1.96289c0,0 -4.78667,-1.03711 -9.38867,-1.03711zM21,9c0.25575,0 0.51153,0.09747 0.70703,0.29297c0.391,0.391 0.391,1.02306 0,1.41406l-7.56055,7.56055c-0.188,0.188 -0.44203,0.29297 -0.70703,0.29297c-0.265,0 -0.52003,-0.10497 -0.70703,-0.29297l-3.45313,-3.45312c-0.391,-0.391 -0.391,-1.02306 0,-1.41406c0.391,-0.391 1.02306,-0.391 1.41406,0l2.74609,2.74609l6.85352,-6.85352c0.1955,-0.1955 0.45128,-0.29297 0.70703,-0.29297z"></path></g></g></svg>
